static/img/menus/ico-app-rollcall-memo.svg

<svg width="16" height="16" viewBox="0 0 16 16" fill="none" xmlns="http://www.w3.org/2000/svg">
<circle cx="8" cy="8" r="7.75" fill="white" stroke="#AD8700" stroke-width="0.5"/>
<path d="M13.0529 10.9474L11.0529 13.0529H2.94739V2.94739H13.0529V10.9474ZM3.57922 12.421L9.78918 12.3702V10.2101H12.421V3.57922H3.57922V12.421ZM10.421 10.8419V12.3654L11.8693 10.8419H10.421Z" fill="#AD8700"/>
<path d="M10.5264 4.42102C10.7589 4.42102 10.9474 4.60953 10.9474 4.84207C10.9474 5.07461 10.7589 5.26313 10.5264 5.26313H5.26322C5.03067 5.26313 4.84216 5.07461 4.84216 4.84207C4.84216 4.60953 5.03067 4.42102 5.26322 4.42102H10.5264Z" fill="#AD8700"/>
<path d="M10.5264 6.3158C10.7589 6.3158 10.9474 6.50431 10.9474 6.73685C10.9474 6.96939 10.7589 7.1579 10.5264 7.1579H5.26322C5.03067 7.1579 4.84216 6.96939 4.84216 6.73685C4.84216 6.50431 5.03067 6.3158 5.26322 6.3158H10.5264Z" fill="#AD8700"/>
<path d="M8.21058 8C8.44312 8 8.63164 8.18851 8.63164 8.42105C8.63164 8.65359 8.44312 8.84211 8.21058 8.84211H5.26322C5.03067 8.84211 4.84216 8.65359 4.84216 8.42105C4.84216 8.18851 5.03067 8 5.26322 8H8.21058Z" fill="#AD8700"/>
</svg>

<svg xmlns="http://www.w3.org/2000/svg" width="16" height="16" fill="none" viewBox="0 0 16 16"><circle cx="8" cy="8" r="7.75" fill="#fff" stroke="#ad8700" stroke-width=".5"/><path fill="#ad8700" d="m13.053 10.947-2 2.106H2.947V2.947h10.106zm-9.474 1.474 6.21-.05v-2.16h2.632V3.578H3.579zm6.842-1.58v1.524l1.448-1.523z"/><path fill="#ad8700" d="M10.526 4.421a.421.421 0 0 1 0 .842H5.263a.421.421 0 0 1 0-.842zM10.526 6.316a.421.421 0 0 1 0 .842H5.263a.421.421 0 1 1 0-.842zM8.21 8a.421.421 0 1 1 0 .842H5.264a.421.421 0 0 1 0-.842z"/></svg>
